packages/ui/public/icons/profile-discord-icon.svg

<svg viewBox="0 0 22 16" fill="none" xmlns="http://www.w3.org/2000/svg">
  <path d="M17.7734 1.44922C17.7734 1.44922 17.7734 1.44922 17.7402 1.44922C16.4785 0.851562 15.1504 0.453125 13.7891 0.220703C13.7559 0.1875 13.7227 0.220703 13.7227 0.220703C13.5234 0.552734 13.3574 0.917969 13.2246 1.25C11.7305 1.01758 10.2363 1.01758 8.74219 1.25C8.60938 0.917969 8.44336 0.552734 8.24414 0.220703C8.24414 0.220703 8.21094 0.1875 8.17773 0.220703C6.81641 0.453125 5.48828 0.851562 4.22656 1.44922C4.19336 1.44922 4.19336 1.44922 4.19336 1.44922C1.66992 5.23438 0.972656 8.91992 1.30469 12.5723C1.30469 12.5723 1.30469 12.6055 1.33789 12.6055C2.79883 13.7012 4.45898 14.5312 6.21875 15.0625C6.21875 15.0957 6.25195 15.0625 6.28516 15.0625C6.65039 14.5312 6.98242 14 7.28125 13.4355C7.28125 13.4023 7.28125 13.3691 7.24805 13.3359C6.7168 13.1367 6.18555 12.9043 5.7207 12.6055C5.6875 12.6055 5.6543 12.5391 5.7207 12.5059C5.82031 12.4395 5.91992 12.373 6.01953 12.2734C6.01953 12.2734 6.05273 12.2734 6.08594 12.2734C9.27344 13.7344 12.7266 13.7344 15.8809 12.2734C15.9141 12.2734 15.9141 12.2734 15.9473 12.2734C16.0469 12.373 16.1465 12.4395 16.2461 12.5059C16.2793 12.5391 16.2793 12.6055 16.2461 12.6055C15.748 12.9043 15.25 13.1367 14.7188 13.3359C14.6855 13.3691 14.6855 13.4023 14.6855 13.4355C14.9844 14 15.3164 14.5312 15.6816 15.0625C15.7148 15.0625 15.7148 15.0957 15.748 15.0625C17.5078 14.5312 19.168 13.7012 20.6289 12.6055C20.6621 12.6055 20.6621 12.5723 20.6621 12.5723C21.0605 8.35547 19.9648 4.70312 17.7734 1.44922ZM7.74609 10.3477C6.7832 10.3477 5.98633 9.45117 5.98633 8.38867C5.98633 7.29297 6.7832 6.42969 7.74609 6.42969C8.74219 6.42969 9.50586 7.29297 9.50586 8.38867C9.50586 9.45117 8.70898 10.3477 7.74609 10.3477ZM14.2207 10.3477C13.2578 10.3477 12.4941 9.45117 12.4941 8.38867C12.4941 7.29297 13.2578 6.42969 14.2207 6.42969C15.2168 6.42969 16.0137 7.29297 15.9805 8.38867C15.9805 9.45117 15.2168 10.3477 14.2207 10.3477Z" fill="white" fill-opacity="0.923" />
</svg>

<svg viewBox="0 0 22 16" fill="none" xmlns="http://www.w3.org/2000/svg"><path d="M17.773 1.45h-.033A15.155 15.155 0 0 0 13.79.22c-.034-.033-.067 0-.067 0a7.29 7.29 0 0 0-.498 1.03 14.495 14.495 0 0 0-4.483 0A7.3 7.3 0 0 0 8.244.22s-.033-.033-.066 0c-1.362.233-2.69.632-3.951 1.23h-.034C1.67 5.233.973 8.92 1.305 12.571c0 0 0 .034.033.034a15.708 15.708 0 0 0 4.88 2.457c0 .033.034 0 .067 0 .365-.532.697-1.063.996-1.628 0-.033 0-.066-.033-.1-.531-.198-1.062-.43-1.527-.73-.034 0-.067-.066 0-.1.1-.066.199-.132.299-.232h.066c3.187 1.461 6.64 1.461 9.795 0h.066c.1.1.2.167.3.233.032.033.032.1 0 .1a9.194 9.194 0 0 1-1.528.73c-.034.033-.034.066-.034.1.3.564.631 1.095.997 1.627.033 0 .033.033.066 0a15.708 15.708 0 0 0 4.88-2.458c.034 0 .034-.033.034-.033.399-4.217-.697-7.869-2.889-11.123ZM7.746 10.347c-.963 0-1.76-.897-1.76-1.96 0-1.095.797-1.958 1.76-1.958.996 0 1.76.863 1.76 1.959 0 1.062-.797 1.959-1.76 1.959Zm6.475 0c-.963 0-1.727-.897-1.727-1.96 0-1.095.764-1.958 1.727-1.958.996 0 1.793.863 1.76 1.959 0 1.062-.764 1.959-1.76 1.959Z" fill="#fff" fill-opacity=".923"/></svg>
